X: 17465
T: Highway To Dublin, The
R: slip jig
M: 9/8
K: Ddorian
|:A2 a g2 e f2d|ege c3 c>dc|A2 a g2 e f2d|1 gec d3 AFD:|2 gec d3 d2||
|:F|D2 E F2 D G2 F|E>DE C3 C2 E|D2 E F2 D GFE|Dd^c d3 d2:|
|:e|fed c2 A c2 f|ege c3 cde|fed cBA d2 d|(^f/g/af ) d3 d2:|
|:e|f>ga gaf e2 d|ege c3 cde|f>ga gaf e2 d|gec d3 d2:|

